!!! OTL: Literature96
!!! Chapter: 5
!!! Section: III
!!! Page: 367
!!! Mode: 
!!! Encoder: DJB
**kern
*staff1
*I"Piano
=1-
*clefG2
*k[f#c#g#]
*A:
*M6/8
4e/
8a/
4a/
8b\
=2
4b\
8cc#\
4.cc#\
=3
4b\
8a/
[4.g#/
=4
4.g#/]
8f#/
4r
=5
4g#/
8b#\
4cc#\
8dd#\
=6
4dd#\
8ee\
4.ee\
=7
4b\
8g#/
[4.f#/
=8
4.f#/]
8e/
8r
8e/
=9
4e/
8a/
4a/
8b\
=10
!!linebreak:original
4b\
8cc#\
4.cc#\
=11
4b\
8a/
[4.ff#\
=12
4.ff#\]
8ee\
4r
=13
4dd\
8ff#\
4ee\
8cc#\
=14
4b\
8dd\
4.f#/
=15
4e/
8cc#\
[4.b\
=16
4.b\]
8a/
4r
==
*-
